X:84
T:Galway Hornpipe
R:hornpipe
O:Ireland
M:4/4
L:1/8
K:D
A,2|"D" D2 FA dAFD | "A" CDEF "G" G2 FE | "D" D2  FA   d3f | "G" edcB "A" (3(ABA) (3(GFE) |
     "D" D2 FA dAFD | "A" CDEF "G" GE FG | "A" AdcB AGFE | "D" (3(DED)  CE   D2 :|
|:ag| "D" f3g  fedc | "G" B^ABc      Bcd^d | "E7" e3f edcB | "A" (3Ace (3aecA4   |
     "D" dcde  fdAF | "G" GFGA  BdcB |"A" AdcB  AGFE | "D" (3(DED)   CE  D2 :|
